assets/images/youtube.svg

<svg width="32" height="22" viewBox="0 0 32 22" fill="none" xmlns="http://www.w3.org/2000/svg">
<path d="M12.8 15.7143L21.104 11L12.8 6.28571V15.7143ZM31.296 3.41C31.504 4.14857 31.648 5.13857 31.744 6.39571C31.856 7.65286 31.904 8.73714 31.904 9.68L32 11C32 14.4414 31.744 16.9714 31.296 18.59C30.896 20.0043 29.968 20.9157 28.528 21.3086C27.776 21.5129 26.4 21.6543 24.288 21.7486C22.208 21.8586 20.304 21.9057 18.544 21.9057L16 22C9.296 22 5.12 21.7486 3.472 21.3086C2.032 20.9157 1.104 20.0043 0.704 18.59C0.496 17.8514 0.352 16.8614 0.256 15.6043C0.144 14.3471 0.0959999 13.2629 0.0959999 12.32L0 11C0 7.55857 0.256 5.02857 0.704 3.41C1.104 1.99571 2.032 1.08429 3.472 0.691429C4.224 0.487143 5.6 0.345714 7.712 0.251428C9.792 0.141428 11.696 0.0942856 13.456 0.0942856L16 0C22.704 0 26.88 0.251429 28.528 0.691429C29.968 1.08429 30.896 1.99571 31.296 3.41Z" fill="white"/>
</svg>

<svg xmlns="http://www.w3.org/2000/svg" width="32" height="22" fill="none"><path fill="#fff" d="M12.8 15.714 21.104 11 12.8 6.286zM31.296 3.41c.208.739.352 1.729.448 2.986a37 37 0 0 1 .16 3.284L32 11c0 3.441-.256 5.971-.704 7.59-.4 1.414-1.328 2.326-2.768 2.719-.752.204-2.128.345-4.24.44-2.08.11-3.984.157-5.744.157L16 22c-6.704 0-10.88-.251-12.528-.691-1.44-.393-2.368-1.305-2.768-2.719-.208-.739-.352-1.729-.448-2.986a37 37 0 0 1-.16-3.284L0 11c0-3.441.256-5.971.704-7.59.4-1.414 1.328-2.326 2.768-2.719C4.224.487 5.6.346 7.712.251c2.08-.11 3.984-.157 5.744-.157L16 0c6.704 0 10.88.251 12.528.691 1.44.393 2.368 1.305 2.768 2.719"/></svg>
